X:1
T:Braintree, 87.87 D
T:Braintree, 87.87 D
T:William James Kirkpatrick, 1891
T:Public Domain Courtesy of the Cyber Hymnal™
C:William James Kirkpatrick, 1891
Z:Public Domain
Z:Courtesy of the Cyber Hymnal™
%%score ( 1 2 ) 3
L:1/8
Q:1/4=108
M:4/4
K:F
V:1 treble 
V:2 treble 
V:3 bass 
V:1
 C[CF] | [FA]2 [FA]2 [F^G]2 [FA]2 | [FB]4 [FA]2 [CF][FA] | [EG]2 [^D^F]2 [EG]2 [EA]2 | %4
 [CF]6 C[CF] | [FA]2 [FA]2 [F^G]2 [FA]2 | [Fc]4 [FB]2 [FA][FA] | [EG]2 [EG]2 [FA]2 [FG]2 | %8
 [EG]6 CC | [EB]2 [EB]2 [Ec]2 [EB]2 | [GB]4 [FA]2 [FA][FA] | [EG]2 [EG]2 [Ec]2 [EB]2 | %12
 [FA]6 [CF][CF] | F2 [FB]2 [FB]2 [Fd]2 | [Fd]2 [Fc]4 [CF][FA] | [FA]2 [CG]2 [CF]2 [CE]2 | [CF]6 |] %17
V:2
 C x | x8 | x8 | x8 | x6 C x | x8 | x8 | x8 | x6 CC | x8 | x8 | x8 | x8 | F2 x6 | x8 | x8 | x6 |] %17
V:3
 [F,A,][F,A,] | [F,C]2 [F,C]2 [F,=B,]2 [F,C]2 | [F,D]4 [F,C]2 [F,A,][F,C] | %3
 [C,B,]2 [C,A,]2 [C,B,]2 [C,C]2 | [F,A,]6 [F,A,][F,A,] | [F,C]2 [F,C]2 [F,=B,]2 [F,C]2 | %6
 [F,_E]4 [F,D]2 [F,C][F,C] | [G,C]2 [G,C]2 [G,=B,]2 [G,B,]2 | [C,C]6 [C,E,][C,E,] | %9
 [C,G,]2 [C,G,]2 [C,G,]2 [C,C]2 | [F,C]4 [F,C]2 [F,C][F,C] | [C,C]2 [C,C]2 [C,G,]2 [C,C]2 | %12
 [F,C]6 [F,A,][F,A,] | [D,B,]2 [D,B,]2 [B,,D]2 [B,,B,]2 | [F,B,]2 [F,A,]4 [F,A,][F,C] | %15
 [C,C]2 [C,B,]2 [C,A,]2 [C,G,]2 | [F,A,]6 |] %17

